poi/svg/1108.svg

<?xml version="1.0" encoding="UTF-8" standalone="no"?>
<svg
   xmlns:dc="http://purl.org/dc/elements/1.1/"
   xmlns:cc="http://creativecommons.org/ns#"
   xmlns:rdf="http://www.w3.org/1999/02/22-rdf-syntax-ns#"
   xmlns:svg="http://www.w3.org/2000/svg"
   xmlns="http://www.w3.org/2000/svg"
   xmlns:sodipodi="http://sodipodi.sourceforge.net/DTD/sodipodi-0.dtd"
   xmlns:inkscape="http://www.inkscape.org/namespaces/inkscape"
   inkscape:version="1.0 (4035a4fb49, 2020-05-01)"
   sodipodi:docname="1108.svg"
   id="svg20"
   version="1.2"
   viewBox="0 0 42.519639 42.519639"
   height="14.999999mm"
   width="14.999999mm">
  <metadata
     id="metadata24">
    <rdf:RDF>
      <cc:Work
         rdf:about="">
        <dc:format>image/svg+xml</dc:format>
        <dc:type
           rdf:resource="http://purl.org/dc/dcmitype/StillImage" />
        <dc:title>Qt SVG Document</dc:title>
      </cc:Work>
    </rdf:RDF>
  </metadata>
  <sodipodi:namedview
     inkscape:current-layer="svg20"
     inkscape:window-maximized="1"
     inkscape:window-y="-9"
     inkscape:window-x="-9"
     inkscape:cy="28.346482"
     inkscape:cx="28.346482"
     inkscape:zoom="18.047943"
     fit-margin-bottom="0"
     fit-margin-right="0"
     fit-margin-left="0"
     fit-margin-top="0"
     showgrid="false"
     id="namedview22"
     inkscape:window-height="1013"
     inkscape:window-width="1920"
     inkscape:pageshadow="2"
     inkscape:pageopacity="0"
     guidetolerance="10"
     gridtolerance="10"
     objecttolerance="10"
     borderopacity="1"
     bordercolor="#666666"
     pagecolor="#ffffff" />
  <title
     id="title2">Qt SVG Document</title>
  <desc
     id="desc4">Generated with Qt</desc>
  <defs
     id="defs6" />
  <g
     transform="translate(5.25984,5.25984)"
     id="g18"
     stroke-linejoin="bevel"
     stroke-linecap="square"
     fill-rule="evenodd"
     stroke-width="1"
     stroke="#000000"
     fill="none">
    <g
       id="g10"
       font-style="normal"
       font-weight="400"
       font-size="7.8px"
       font-family="'MS Shell Dlg 2'"
       stroke="none"
       fill-opacity="1"
       fill="#3d97f1">
      <path
         id="path8"
         d="M 37.2598,16 C 37.2598,27.7415 27.7415,37.2598 16,37.2598 4.25851,37.2598 -5.25984,27.7415 -5.25984,16 -5.25984,4.25851 4.25851,-5.25984 16,-5.25984 27.7415,-5.25984 37.2598,4.25851 37.2598,16"
         fill-rule="evenodd"
         vector-effect="non-scaling-stroke" />
    </g>
    <g
       id="g14"
       font-style="normal"
       font-weight="400"
       font-size="7.8px"
       font-family="'MS Shell Dlg 2'"
       transform="translate(14.8661,12.5984)"
       stroke="none"
       fill-opacity="0.94902"
       fill="#ffffff">
      <path
         id="path12"
         d="m -8.97412,1.7793 c 0,0.23795 -0.11898,0.35693 -0.35693,0.35693 h -2.70855 c -0.2239,0 -0.3359,-0.11898 -0.3359,-0.35693 v -3.17041 c 0,-0.23796 0.112,-0.35694 0.3359,-0.35694 h 2.70855 c 0.23795,0 0.35693,0.11898 0.35693,0.35694 V 1.7793 m -1.30178,11.7368 h 2.07863 v 1.1338 H -11.0527 V 2.38818 h 0.7768 V 13.5161 M 11.791,-2.25195 c 0.056,0.44791 0.119,1.01831 0.189,1.711179 0.07,0.692871 0.133,1.368245 0.1889,2.026121 l 0.273,2.41455 v 8.4194 h -1.6377 v 1.4698 c 0,0.3359 -0.1225,0.6193 -0.3674,0.8503 -0.245,0.231 -0.52843,0.3464 -0.85037,0.3464 -0.33594,0 -0.62639,-0.1154 -0.87134,-0.3464 C 8.47013,14.4084 8.34766,14.125 8.34766,13.7891 V 12.3193 H -1.83545 v 1.4698 c 0,0.3359 -0.12248,0.6193 -0.36743,0.8503 -0.24496,0.231 -0.5284,0.3464 -0.85034,0.3464 -0.33594,0 -0.62639,-0.1154 -0.87134,-0.3464 -0.24495,-0.231 -0.36743,-0.5144 -0.36743,-0.8503 V 12.3193 H -5.8877 V 3.8999 c 0.028,-0.40592 0.05599,-0.80835 0.08399,-1.20727 0.02799,-0.39893 0.06999,-0.80135 0.12598,-1.20728 0.06998,-0.657876 0.13997,-1.33325 0.20996,-2.026121 0.06998,-0.692869 0.13297,-1.263269 0.18896,-1.711179 0.11198,-0.97982 0.31144,-1.67619 0.59839,-2.08911 0.28695,-0.41293 0.77336,-0.78036 1.45923,-1.1023 0.97982,-0.46191 2.00513,-0.79085 3.075926,-0.98682 1.070801,-0.19596 2.208094,-0.29394 3.411864,-0.29394 1.20378,0 2.33757,0.09798 3.40137,0.29394 1.0638,0.19597 2.09961,0.52491 3.10742,0.98682 0.33591,0.16797 0.61941,0.33944 0.85031,0.5144 0.231,0.17497 0.427,0.37793 0.5879,0.60889 0.161,0.23096 0.2835,0.51091 0.3675,0.83985 0.0839,0.32893 0.1539,0.73836 0.2099,1.22827 M -0.512695,-5.08643 c -0.363933,0 -0.545895,0.18197 -0.545895,0.5459 0,0.37793 0.181962,0.5669 0.545895,0.5669 H 7.10889 c 0.36393,0 0.5459,-0.18897 0.5459,-0.5669 0,-0.36393 -0.18197,-0.5459 -0.5459,-0.5459 H -0.512695 M -3.05322,9.23291 c 0.32194,0 0.60538,-0.12248 0.85034,-0.36743 0.24495,-0.24496 0.36743,-0.5424 0.36743,-0.89234 0,-0.33593 -0.12248,-0.61938 -0.36743,-0.85034 -0.24496,-0.23095 -0.5284,-0.34643 -0.85034,-0.34643 -0.33594,0 -0.62639,0.11548 -0.87134,0.34643 -0.24495,0.23096 -0.36743,0.51441 -0.36743,0.85034 0,0.34994 0.12248,0.64738 0.36743,0.89234 0.24495,0.24495 0.5354,0.36743 0.87134,0.36743 m 12.63965,0 c 0.32194,0 0.60537,-0.12248 0.85037,-0.36743 0.2449,-0.24496 0.3674,-0.5424 0.3674,-0.89234 0,-0.33593 -0.1225,-0.61938 -0.3674,-0.85034 C 10.1918,6.89185 9.90837,6.77637 9.58643,6.77637 9.25049,6.77637 8.96004,6.89185 8.71509,7.1228 8.47013,7.35376 8.34766,7.63721 8.34766,7.97314 c 0,0.34994 0.12247,0.64738 0.36743,0.89234 0.24495,0.24495 0.5354,0.36743 0.87134,0.36743 M 10.0273,3.75293 c 0.5459,0 0.8049,-0.31494 0.7769,-0.94482 -0.028,-0.47592 -0.056,-0.90984 -0.084,-1.30176 -0.028,-0.39193 -0.063,-0.76636 -0.105,-1.123293 -0.042,-0.356934 -0.0874,-0.734864 -0.1364,-1.133789 -0.049,-0.398928 -0.1015,-0.857338 -0.1575,-1.375248 -0.14,-0.5179 -0.46892,-0.77685 -0.98683,-0.77685 H -2.82227 c -0.57389,0 -0.88883,0.24495 -0.94482,0.73486 -0.12598,0.96582 -0.22396,1.802166 -0.29395,2.509034 C -4.13102,1.04793 -4.19401,1.88428 -4.25,2.8501 c -0.02799,0.23795 0.03499,0.44791 0.18896,0.62988 0.15398,0.18197 0.36394,0.27295 0.62989,0.27295 H 10.0273"
         fill-rule="evenodd"
         vector-effect="none" />
    </g>
    <g
       id="g16"
       font-style="normal"
       font-weight="400"
       font-size="7.8px"
       font-family="'MS Shell Dlg 2'"
       stroke="none"
       fill-opacity="1"
       fill="#3d97f1" />
  </g>
</svg>

<?xml version="1.0" encoding="UTF-8" standalone="no"?>
<svg width="11.2889mm" height="11.2889mm"
 viewBox="0 0 32 32"
 xmlns="http://www.w3.org/2000/svg" xmlns:xlink="http://www.w3.org/1999/xlink"  version="1.2" baseProfile="tiny">
<title>Qt SVG Document</title>
<desc>Generated with Qt</desc>
<defs>
</defs>
<g fill="none" stroke="black" stroke-width="1" fill-rule="evenodd" stroke-linecap="square" stroke-linejoin="bevel" >

<g fill="#3d97f1" fill-opacity="1" stroke="none" transform="matrix(1,0,0,1,0,0)"
font-family="MS Shell Dlg 2" font-size="7.8" font-weight="400" font-style="normal" 
>
<path vector-effect="non-scaling-stroke" fill-rule="evenodd" d="M37.2598,16 C37.2598,27.7415 27.7415,37.2598 16,37.2598 C4.25851,37.2598 -5.25984,27.7415 -5.25984,16 C-5.25984,4.25851 4.25851,-5.25984 16,-5.25984 C27.7415,-5.25984 37.2598,4.25851 37.2598,16 "/>
</g>

<g fill="#ffffff" fill-opacity="0.94902" stroke="none" transform="matrix(1,0,0,1,14.8661,12.5984)"
font-family="MS Shell Dlg 2" font-size="7.8" font-weight="400" font-style="normal" 
>
<path vector-effect="none" fill-rule="evenodd" d="M-8.97412,1.7793 C-8.97412,2.01725 -9.0931,2.13623 -9.33105,2.13623 L-12.0396,2.13623 C-12.2635,2.13623 -12.3755,2.01725 -12.3755,1.7793 L-12.3755,-1.39111 C-12.3755,-1.62907 -12.2635,-1.74805 -12.0396,-1.74805 L-9.33105,-1.74805 C-9.0931,-1.74805 -8.97412,-1.62907 -8.97412,-1.39111 L-8.97412,1.7793 M-10.2759,13.5161 L-8.19727,13.5161 L-8.19727,14.6499 L-11.0527,14.6499 L-11.0527,2.38818 L-10.2759,2.38818 L-10.2759,13.5161 M11.791,-2.25195 C11.847,-1.80404 11.91,-1.23364 11.98,-0.540771 C12.05,0.1521 12.113,0.827474 12.1689,1.48535 L12.4419,3.8999 L12.4419,12.3193 L10.8042,12.3193 L10.8042,13.7891 C10.8042,14.125 10.6817,14.4084 10.4368,14.6394 C10.1918,14.8704 9.90837,14.9858 9.58643,14.9858 C9.25049,14.9858 8.96004,14.8704 8.71509,14.6394 C8.47013,14.4084 8.34766,14.125 8.34766,13.7891 L8.34766,12.3193 L-1.83545,12.3193 L-1.83545,13.7891 C-1.83545,14.125 -1.95793,14.4084 -2.20288,14.6394 C-2.44784,14.8704 -2.73128,14.9858 -3.05322,14.9858 C-3.38916,14.9858 -3.67961,14.8704 -3.92456,14.6394 C-4.16951,14.4084 -4.29199,14.125 -4.29199,13.7891 L-4.29199,12.3193 L-5.8877,12.3193 L-5.8877,3.8999 C-5.8597,3.49398 -5.83171,3.09155 -5.80371,2.69263 C-5.77572,2.2937 -5.73372,1.89128 -5.67773,1.48535 C-5.60775,0.827474 -5.53776,0.1521 -5.46777,-0.540771 C-5.39779,-1.23364 -5.3348,-1.80404 -5.27881,-2.25195 C-5.16683,-3.23177 -4.96737,-3.92814 -4.68042,-4.34106 C-4.39347,-4.75399 -3.90706,-5.12142 -3.22119,-5.44336 C-2.24137,-5.90527 -1.21606,-6.23421 -0.145264,-6.43018 C0.925537,-6.62614 2.06283,-6.72412 3.2666,-6.72412 C4.47038,-6.72412 5.60417,-6.62614 6.66797,-6.43018 C7.73177,-6.23421 8.76758,-5.90527 9.77539,-5.44336 C10.1113,-5.27539 10.3948,-5.10392 10.6257,-4.92896 C10.8567,-4.75399 11.0527,-4.55103 11.2136,-4.32007 C11.3746,-4.08911 11.4971,-3.80916 11.5811,-3.48022 C11.665,-3.15129 11.735,-2.74186 11.791,-2.25195 M-0.512695,-5.08643 C-0.876628,-5.08643 -1.05859,-4.90446 -1.05859,-4.54053 C-1.05859,-4.1626 -0.876628,-3.97363 -0.512695,-3.97363 L7.10889,-3.97363 C7.47282,-3.97363 7.65479,-4.1626 7.65479,-4.54053 C7.65479,-4.90446 7.47282,-5.08643 7.10889,-5.08643 L-0.512695,-5.08643 M-3.05322,9.23291 C-2.73128,9.23291 -2.44784,9.11043 -2.20288,8.86548 C-1.95793,8.62052 -1.83545,8.32308 -1.83545,7.97314 C-1.83545,7.63721 -1.95793,7.35376 -2.20288,7.1228 C-2.44784,6.89185 -2.73128,6.77637 -3.05322,6.77637 C-3.38916,6.77637 -3.67961,6.89185 -3.92456,7.1228 C-4.16951,7.35376 -4.29199,7.63721 -4.29199,7.97314 C-4.29199,8.32308 -4.16951,8.62052 -3.92456,8.86548 C-3.67961,9.11043 -3.38916,9.23291 -3.05322,9.23291 M9.58643,9.23291 C9.90837,9.23291 10.1918,9.11043 10.4368,8.86548 C10.6817,8.62052 10.8042,8.32308 10.8042,7.97314 C10.8042,7.63721 10.6817,7.35376 10.4368,7.1228 C10.1918,6.89185 9.90837,6.77637 9.58643,6.77637 C9.25049,6.77637 8.96004,6.89185 8.71509,7.1228 C8.47013,7.35376 8.34766,7.63721 8.34766,7.97314 C8.34766,8.32308 8.47013,8.62052 8.71509,8.86548 C8.96004,9.11043 9.25049,9.23291 9.58643,9.23291 M10.0273,3.75293 C10.5732,3.75293 10.8322,3.43799 10.8042,2.80811 C10.7762,2.33219 10.7482,1.89827 10.7202,1.50635 C10.6922,1.11442 10.6572,0.73999 10.6152,0.383057 C10.5732,0.026123 10.5278,-0.351807 10.4788,-0.750732 C10.4298,-1.14966 10.3773,-1.60807 10.3213,-2.12598 C10.1813,-2.64388 9.85238,-2.90283 9.33447,-2.90283 L-2.82227,-2.90283 C-3.39616,-2.90283 -3.7111,-2.65788 -3.76709,-2.16797 C-3.89307,-1.20215 -3.99105,-0.365804 -4.06104,0.341064 C-4.13102,1.04793 -4.19401,1.88428 -4.25,2.8501 C-4.27799,3.08805 -4.21501,3.29801 -4.06104,3.47998 C-3.90706,3.66195 -3.6971,3.75293 -3.43115,3.75293 L10.0273,3.75293"/>
</g>

<g fill="#3d97f1" fill-opacity="1" stroke="none" transform="matrix(1,0,0,1,0,0)"
font-family="MS Shell Dlg 2" font-size="7.8" font-weight="400" font-style="normal" 
>
</g>
</g>
</svg>
